libs/ui/packages/crypto-icons/src/svg/ACTN.svg

<svg width="24" height="24" viewBox="0 0 24 24" fill="none">
<path d="M3.3045 17.9632L7.30725 10.6755C7.473 10.371 7.74825 10.2885 8.02725 10.4535H8.0565C8.11903 10.4911 8.18869 10.5153 8.26106 10.5246C8.33343 10.5339 8.40695 10.5281 8.47695 10.5075C8.54695 10.4869 8.61192 10.452 8.66774 10.405C8.72356 10.358 8.76903 10.3 8.80125 10.2345L11.613 5.92649C11.7083 5.74499 11.8298 5.57774 11.973 5.42999C12.099 5.58449 12.1927 5.76224 12.2482 5.95349L13.4633 8.96324C13.7385 9.65474 14.4007 10.1512 15.0922 10.1512H15.312C15.6667 10.1647 16.0028 10.3125 16.2518 10.5652L17.1337 11.5027C17.3955 11.7802 17.6363 12.075 17.8538 12.387L20.6978 16.473C20.8043 16.635 20.9055 16.8007 21 16.9695V16.9965C20.8468 16.8774 20.7079 16.741 20.586 16.59L16.7482 12.6082C16.5112 12.3691 16.3067 12.0998 16.14 11.8072C15.834 11.145 15.4485 10.8675 14.8425 10.8967H14.07C13.602 10.8967 13.4902 10.8142 13.35 10.344L12.2482 6.89399C12.0555 6.20249 12.027 6.20249 11.8343 6.89399L11.0895 9.23399C10.9238 9.70124 10.8675 10.4752 10.9507 10.4752C10.9792 10.4752 11.172 10.1152 11.4757 9.48149C11.5335 9.35249 11.607 9.23174 11.6955 9.12149C11.766 9.38549 11.8035 9.65699 11.808 9.92999C11.727 10.1205 11.6347 10.305 11.5305 10.4827L11.5035 10.5652C11.172 11.172 11.172 11.2005 11.5305 11.7802L11.8612 12.3315C11.9872 12.501 12.0893 12.687 12.1658 12.8835C12.0093 13.0158 11.8431 13.1361 11.6685 13.2435L9.957 14.3475C9.65152 14.5149 9.31134 14.6092 8.96325 14.6227C8.355 14.5957 7.83075 14.9002 7.36125 15.5332L6.699 16.473C6.4605 16.767 6.192 17.0355 5.898 17.274L5.29125 17.7705C4.97904 17.9871 4.64617 18.1722 4.2975 18.3232L3.96675 18.4057C3.72675 18.4927 3.4755 18.5482 3.22125 18.57C3.108 18.57 3 18.57 3 18.543C3.08625 18.342 3.1875 18.1485 3.3045 17.9632Z" fill="#FF0000"/>
</svg>

<svg width="24" height="24" viewBox="0 0 24 24" fill="none"><path fill="red" d="m3.305 17.963 4.002-7.288c.166-.304.441-.386.72-.222h.03a.527.527 0 0 0 .744-.218l2.812-4.309a2.2 2.2 0 0 1 .36-.496c.126.154.22.332.275.523l1.215 3.01c.276.692.938 1.188 1.63 1.188h.219a1.4 1.4 0 0 1 .94.414l.882.938q.392.416.72.884l2.844 4.086q.16.243.302.497v.027a2.5 2.5 0 0 1-.414-.407l-3.838-3.982a3.8 3.8 0 0 1-.608-.8c-.306-.663-.692-.94-1.298-.911h-.772c-.468 0-.58-.083-.72-.553l-1.102-3.45c-.192-.692-.221-.692-.414 0l-.745 2.34c-.165.467-.222 1.241-.138 1.241.028 0 .221-.36.525-.994q.086-.194.22-.36.105.398.112.809a5 5 0 0 1-.277.553l-.027.082c-.332.607-.332.636.027 1.215l.33.552q.19.255.305.551a4 4 0 0 1-.498.36l-1.711 1.104a2.25 2.25 0 0 1-.994.276c-.608-.027-1.132.277-1.602.91l-.662.94a5.5 5.5 0 0 1-.801.801l-.607.496a6 6 0 0 1-.993.553l-.331.083c-.24.087-.492.142-.746.164-.113 0-.221 0-.221-.027q.13-.302.305-.58"/></svg>
